X:1
T:Shropshire Lass (The)
C:Trad 1713
S:The Dancing Master Vol II 1713
M:4/4
L:1/8
Q:200
Z:NeroTed <neil@brookes36.freeserve.co.uk> tradtunes 2003-10-22
K:D
ABc|d2d2c2B2|A4A2BA|G2F2E2FG|AGFE DABc|d2d2c2B2|
e4e2f2|gfed cdec|d6:|:de|!f2f2e2d2|g3a gagf|
efef gfge|a4a2bg|fgefd2ag|fgef dfga|bagfe3d|d6:|
